Obsidian-SemiLight/actions/22s/mail-signed-full.svg

<svg viewBox="0 0 22 22" xmlns="http://www.w3.org/2000/svg"><path d="m1 3v1 8 6 .414062.585938h1 6 3v-1h-3-6v-.585938l.4628906-.46289 6.2675782-6.267578 1.4531252 1.451172.814453.814453h.001953l.816406-.814453 1.453125-1.451172 1.316407 1.316406h1.414062l-2.023438-2.0234375 5.751954-5.7539063.222656-.2226562h.048828v.2226562 5.7773438h1v-7h-.048828-.951172-.462891-17.0742184-.4628906zm1 1h.0488281l.2226563.2226562 5.7519531 5.7539063-6.0234375 6.0234375v-4-7.7773438zm1.4628906 0h15.0742184l-7.537109 7.537109z" fill="#4d4d4d"/><path d="m19 11-.996094.994141-.003906-.003907-5 4.998047.005859.00586-.005859.005859.007812.007812-.003906.992188h-.003906v.990234.009766h2l.005859-.005859.003907-.003907c.004-.00002.005765.001953.009765.001954l-.005859-.00586.986328-.986328 4-3.996094c-.004255.002502-.005516.003361-.009766.00586l.009766-.011719.998047-.998047.001953-.001953z" fill="#2ecc71"/></svg>

<svg xmlns="http://www.w3.org/2000/svg" viewBox="0 0 22 22">
  <defs id="defs3051">
    <style type="text/css" id="current-color-scheme">
      .ColorScheme-Text {
        color:#4d4d4d;
      }
      </style>
  </defs>
 <path 
     style="fill:currentColor;fill-opacity:1;stroke:none" 
     d="M 1 3 L 1 4 L 1 12 L 1 18 L 1 18.414062 L 1 19 L 2 19 L 8 19 L 11 19 L 11 18 L 8 18 L 2 18 L 2 17.414062 L 2.4628906 16.951172 L 8.7304688 10.683594 L 10.183594 12.134766 L 10.998047 12.949219 L 11 12.949219 L 11.816406 12.134766 L 13.269531 10.683594 L 14.585938 12 L 16 12 L 13.976562 9.9765625 L 19.728516 4.2226562 L 19.951172 4 L 20 4 L 20 4.2226562 L 20 10 L 21 10 L 21 3 L 20.951172 3 L 20 3 L 19.537109 3 L 2.4628906 3 L 2 3 L 1 3 z M 2 4 L 2.0488281 4 L 2.2714844 4.2226562 L 8.0234375 9.9765625 L 2 16 L 2 12 L 2 4.2226562 L 2 4 z M 3.4628906 4 L 18.537109 4 L 11 11.537109 L 3.4628906 4 z "
     class="ColorScheme-Text"
     />
    <path
     style="fill:#2ecc71;fill-opacity:1;stroke:none"
     d="M 19 11 L 18.003906 11.994141 L 18 11.990234 L 13 16.988281 L 13.005859 16.994141 L 13 17 L 13.007812 17.007812 L 13.003906 18 L 13 18 L 13 18.990234 L 13 19 L 15 19 L 15.005859 18.994141 L 15.009766 18.990234 C 15.013766 18.990214 15.015531 18.992187 15.019531 18.992188 L 15.013672 18.986328 L 16 18 L 20 14.003906 C 19.995745 14.006408 19.994484 14.007267 19.990234 14.009766 L 20 13.998047 L 20.998047 13 L 21 12.998047 L 19 11 z "
     />
</svg>
